X:1
T:O Come Little Children
T:Johann A. P. Schulz Harmony by Edward C. Currie
T:O Come Little Children
C:Johann A. P. Schulz
%%score [ ( 1 2 ) ( 3 4 ) ]
L:1/8
M:2/2
K:D
V:1 treble nm="MusicXML Part"
V:2 treble 
V:3 bass nm="MusicXML Part"
V:4 bass 
V:1
 A2 | A4 F2 A2 | A4 F2 A2 | G4 E2 G2 | F4 z2 A2 | A4 F2 A2 | A4 F2 A2 | G4 E2 G2 | F4 z2 F2 | %9
w: O|come lit- tle|child- ren, O|come one and|all. To|Beth- le- hem|haste, to the|man- ger so|small. God's|
w: He's|born in a|sta- ble for|you and for|me. Draw|near by the|bright gleam- ing|star- light to|see. In|
w: See|Ma- ry and|Jo- seph with|love- beam- ing|eyes, Are|gaz- ing up-|on the rude|bed where He|lies. The|
 E4 E2 E2 | G4 G2 G2 | F4 F2 F2 | B6 B2 | A4 A2 A2 | d4 A2 F2 | G4 E2 E2 | D4 |] %17
w: Son for a|gift has been|sent you this|night, To|be your Re-|deem- er, your|joy and de-|light.|
w: swad- dl- ling|clothes lies so|meek and so|mild, And|poor- er than|an- gels the|hea- ven- ly|Child.|
w: shep- herds are|kneel- ing with|hearts full of|love, While|an- gels sing|loud al- le-|lu- ias a-|bove.|
V:2
 D2 | (E2 D2) D2 E2 | (D2 E2) D2 D2 | (E2 D2) D2 C2 | D4 x2 C2 | (D2 C2) D2 E2 | (D2 E2) D2 D2 | %7
 (E2 D2) D2 C2 | D4 x2 D2 | (E2 D2) C2 D2 | (C2 D2) E2 E2 | D4 D2 D2 | (D2 ^D2 E2) C2 | %13
 (=D2 G2) F2 E2 | D4 E2 D2 | (E2 D2) D2 C2 | D4 |] %17
V:3
 F,2 | A,4 A,2 A,2 | (B,2 A,2) A,2 A,2 | B,4 B,2 A,2 | A,4 z2 G,2 | (F,2 G,2) A,2 A,2 | %6
 (B,2 A,2) A,2 A,2 | B,4 A,2 A,2 | A,4 z2 A,2 | A,4 A,2 B,2 | A,4 A,2 C2 | (D2 C2) B,2 A,2 | %12
 (G,2 A,2 B,2) G,2 | A,4 A,2 A,2 | B,4 A,2 A,2 | B,4 A,2 G,2 | F,4 |] %17
V:4
 D,2 | (C,2 A,,2) D,2 C,2 | (B,,2 C,2) D,2 F,2 | E,4 G,2 E,2 | (D,2 C,2 B,,2) A,,2 | %5
 (D,2 E,2) D,2 C,2 | (B,,2 C,2) D,2 F,,2 | G,,4 A,,2 A,,2 | D,4 x2 D,2 | (C,2 B,,2) A,,2 G,,2 | %10
 (A,,2 B,,2) C,2 A,,2 | D,4 D,2 D,2 | G,2 F,2 G,2 E,2 | (F,2 E,2) D,2 C,2 | B,,4 C,2 D,2 | %15
 G,,4 A,,2 A,,2 | D,4 |] %17

